packages/kaspersky-hexa-ui-icons/src/iconsSVGs/28x20/FlagXk.svg

<svg width="28" height="20" viewBox="0 0 28 20" fill="none" xmlns="http://www.w3.org/2000/svg">
<g clip-path="url(#clip0_41916_259)">
<path d="M0 0H28V20H0V0Z" fill="#244AA5"/>
<path d="M14.1465 6.42831C14.2599 6.56062 14.3358 6.69283 14.3358 6.85363C14.2406 6.90069 14.1091 6.91991 14.0332 7.00495C14.5058 6.93864 14.5999 7.48667 15.1292 7.27871C15.1484 7.35461 15.2243 7.42085 15.3185 7.39221L15.3751 7.24127C15.5826 7.18459 15.5259 7.52462 15.7536 7.45835C15.867 7.55298 15.7911 7.71341 15.867 7.82726C15.867 7.95932 15.9237 8.07269 15.9803 8.18602C16.0371 8.12023 16.0745 8.0256 16.207 8.05396C16.3012 8.1577 16.3771 8.25233 16.3962 8.36566C16.3578 8.58326 16.3012 8.77201 16.5279 8.88534V8.95161C16.6797 9.01789 17.0197 8.88534 17.0197 9.14999C17.0004 9.24462 17.1138 9.15962 17.1523 9.21626C17.2464 9.17831 17.379 9.19757 17.4923 9.19757C17.5865 9.39594 17.379 9.5376 17.3223 9.71724C17.4164 9.81139 17.379 9.98189 17.3598 10.0947L17.303 10.1231C17.4538 10.1514 17.6431 10.1048 17.7757 10.1899L18.0216 10.284C18.1349 10.2182 18.2666 10.2081 18.4183 10.2182C18.5317 10.3033 18.3799 10.4449 18.475 10.5107C18.6076 10.5107 18.721 10.53 18.7392 10.6433L18.7584 10.6808C18.8525 10.5107 19.1177 10.624 19.231 10.5016C19.4203 10.5016 19.4577 10.7091 19.5518 10.8225C19.5903 11.1159 19.231 11.2486 19.3444 11.541C19.2685 11.6827 19.1177 11.7961 19.0043 11.9286C19.0418 11.9478 19.0225 11.9944 19.0225 12.0227C18.9092 12.0896 19.0043 12.2879 18.8525 12.3062C18.8343 12.4296 18.6076 12.3821 18.6825 12.5146C18.8343 12.713 18.6076 12.8355 18.6076 13.0156C18.5124 13.1198 18.3232 12.9204 18.3232 13.1198C18.2098 13.1481 18.0965 13.0156 18.0216 13.129C17.9832 13.2615 18.0965 13.3081 18.0783 13.4407C18.2666 13.4214 18.3232 13.6107 18.3991 13.724L18.5884 13.9133C18.3991 14.0641 18.1532 13.894 17.9265 13.979C17.8698 13.9507 17.9265 13.8758 17.8698 13.8475C17.8131 13.7807 17.6998 13.7807 17.6056 13.7624C17.6239 13.8475 17.4538 13.8758 17.5297 13.979C17.5297 14.0073 17.5672 14.0924 17.4923 14.0924C17.3405 14.1399 17.3597 13.9608 17.2271 14.0266C17.0571 14.0924 17.1897 14.3474 16.9438 14.3191C16.9812 14.5468 16.5663 14.6976 16.8496 14.896C16.887 14.9334 16.8678 15.0093 16.8678 15.066C16.6978 15.2178 16.3961 15.1611 16.2069 15.1044C16.0551 15.066 16.1503 14.8767 16.0936 14.7735C16.0369 14.6784 15.8669 14.6126 15.8669 14.48C15.7535 14.4334 15.6584 14.4042 15.5825 14.31C15.3184 14.565 14.9966 14.8109 14.619 14.82C14.449 14.9051 14.3539 15.2462 14.0897 15.1044C13.986 15.2745 13.6738 15.1044 13.655 15.3494C13.5321 15.3969 13.5888 15.5578 13.5134 15.6327C13.485 15.822 13.5134 15.9829 13.6738 16.0963C13.74 16.2379 13.5321 16.2379 13.6171 16.3705C13.6363 16.4171 13.6171 16.4839 13.5888 16.5031C13.5321 16.5314 13.5134 16.5598 13.5321 16.6165C13.485 16.6165 13.4658 16.6448 13.4283 16.6822C13.3808 16.7764 13.23 16.8239 13.1257 16.8897C13.022 16.918 12.9461 16.8431 12.8803 16.7764C12.8611 16.8806 12.7761 16.9373 12.6723 16.9373C12.521 16.9373 12.5494 16.8047 12.436 16.748C12.4831 16.578 12.3318 16.5031 12.3793 16.3513C12.5022 16.2572 12.7098 16.1904 12.6531 15.992C12.521 15.8321 12.5681 15.5953 12.436 15.4061C12.351 15.3312 12.2093 15.2178 12.2564 15.0377C12.3793 14.896 12.2564 14.726 12.1901 14.5752C12.1618 14.4517 12.0864 14.3384 12.0864 14.1967C11.8784 14.0742 11.8688 13.7524 11.5758 13.724C11.3678 13.724 11.3304 13.4599 11.1224 13.4781C11.1032 13.4407 11.0561 13.4123 11.0182 13.3749C10.8674 13.4781 10.6781 13.3465 10.4893 13.3931C10.3664 13.1856 10.5931 12.9022 10.2622 12.7787V12.6472C10.3001 12.6654 10.3188 12.6279 10.3284 12.6087C10.3472 12.467 10.0921 12.4488 10.1964 12.2879C10.1397 12.2403 10.0734 12.2211 10.1114 12.127C9.96918 11.8345 9.54411 11.8628 9.44948 11.5693C9.52538 11.5036 9.52538 11.4368 9.55374 11.3801C9.48743 11.2667 9.46873 11.1443 9.48743 11.0218C9.55374 11.0026 9.59117 10.9176 9.62912 10.8508C9.54411 10.7941 9.44033 10.7091 9.34573 10.7374C9.17572 10.7091 9.05273 10.5775 8.90144 10.5016C8.86349 10.4642 8.88274 10.3974 8.88274 10.3508C9.09068 10.284 8.85442 9.99103 9.10944 10.029C9.17575 9.94401 9.31741 9.91565 9.42119 9.84938C9.52541 9.83068 9.61042 9.86859 9.71416 9.89695C9.79917 10.0098 9.95049 9.96274 10.0355 10.0573C10.1205 10.0381 10.2247 9.99103 10.3285 10.0381C10.3285 9.8777 10.4039 9.78307 10.5177 9.6697C10.5364 9.60391 10.6402 9.55637 10.7252 9.5189C10.8861 9.55637 11.0749 9.55637 11.1887 9.443C11.2641 9.49054 11.3304 9.39594 11.4154 9.39594C11.5191 9.37672 11.6042 9.40505 11.6801 9.45262C11.6892 9.26336 12.0201 9.42427 12.0864 9.19757C12.1618 9.04625 11.8785 8.9896 11.8972 8.85701C11.8501 8.7057 11.9635 8.63032 12.0201 8.52657C12.0864 8.49821 12.1618 8.4603 12.2468 8.479C12.4644 8.40358 12.2944 7.95932 12.644 8.12023C12.644 8.16732 12.6248 8.22397 12.6532 8.2336C12.7761 8.2336 12.795 8.09177 12.8804 8.04437C12.9178 7.9123 12.8328 7.75139 12.9462 7.64761C13.0028 7.63802 13.0504 7.61929 13.0879 7.57171C13.0879 7.46797 13.0312 7.41132 12.9462 7.34501C12.9178 7.39225 12.8424 7.35464 12.795 7.37337C12.795 7.26001 12.7291 7.18462 12.7098 7.08036C12.6532 7.05204 12.6248 7.00498 12.644 6.93867C12.7291 6.85366 12.644 6.6457 12.8424 6.69286C12.9178 6.62696 13.0504 6.67402 13.1258 6.56066C13.3242 6.44732 13.5888 6.44732 13.7401 6.23936C13.8064 6.24895 13.8818 6.18267 13.9481 6.23936C13.9668 6.36228 14.1465 6.3147 14.1465 6.42831Z" fill="#D0A650"/>
<path d="M15.6097 3.86593L15.3484 3.06272L15.0903 3.86593H14.2452L14.929 4.3627L14.6677 5.16591L15.3484 4.66915L16.0322 5.16591L15.7709 4.3627L16.4548 3.86593H15.6097Z" fill="white"/>
<path d="M18.2677 4.33367L18.0064 3.53368L17.7483 4.33367H16.9032L17.587 4.83044L17.3257 5.63365L18.0064 5.13689L18.6902 5.63365L18.429 4.83044L19.1128 4.33367H18.2677Z" fill="white"/>
<path d="M20.8031 5.25623L20.5451 4.45625L20.2838 5.25623H19.4386L20.1225 5.753L19.8612 6.55621L20.5451 6.05945L21.2257 6.55621L20.9644 5.753L21.6483 5.25623H20.8031Z" fill="white"/>
<path d="M12.9097 3.86593L12.6516 3.06272L12.3903 3.86593H11.5452L12.2291 4.3627L11.9678 5.16591L12.6516 4.66915L13.3323 5.16591L13.071 4.3627L13.7548 3.86593H12.9097Z" fill="white"/>
<path d="M10.2517 4.33367L9.99361 3.53368L9.73233 4.33367H8.88718L9.57104 4.83044L9.30975 5.63365L9.99361 5.13689L10.6742 5.63365L10.413 4.83044L11.0968 4.33367H10.2517Z" fill="white"/>
<path d="M7.71623 5.25623L7.45494 4.45625L7.19688 5.25623H6.35173L7.0356 5.753L6.77431 6.55621L7.45494 6.05945L8.1388 6.55621L7.87752 5.753L8.56138 5.25623H7.71623Z" fill="white"/>
</g>
<defs>
<clipPath id="clip0_41916_259">
<rect width="28" height="20" rx="2" fill="white"/>
</clipPath>
</defs>
</svg>

<svg xmlns="http://www.w3.org/2000/svg" width="28" height="20" fill="none" viewBox="0 0 28 20"><g clip-path="url(#a)"><path fill="#244aa5" d="M0 0h28v20H0z"/><path fill="#d0a650" d="M14.1465 6.4283c.1134.1323.1893.2645.1893.4253-.0952.047-.2267.0663-.3026.1513.4726-.0663.5667.4818 1.096.2738.0192.076.0951.1422.1893.1135l.0566-.151c.2075-.0566.1508.2834.3785.2172.1134.0946.0375.255.1134.3689 0 .132.0567.2454.1133.3587.0568-.0658.0942-.1604.2267-.132.0942.1037.1701.1983.1892.3117-.0384.2176-.095.4063.1317.5196v.0663c.1518.0663.4918-.0663.4918.1984-.0193.0946.0941.0096.1326.0663.0941-.038.2267-.0187.34-.0187.0942.1983-.1133.34-.17.5196.0941.0942.0567.2647.0375.3775l-.0568.0284c.1508.0283.3401-.0183.4727.0668l.2459.0941c.1133-.0658.245-.0759.3967-.0658.1134.0851-.0384.2267.0567.2925.1326 0 .246.0193.2642.1326l.0192.0375c.0941-.1701.3593-.0568.4726-.1792.1893 0 .2267.2075.3208.3209.0385.2934-.3208.4261-.2074.7185-.0759.1417-.2267.2551-.3401.3876.0375.0192.0182.0658.0182.0941-.1133.0669-.0182.2652-.17.2835-.0182.1234-.2449.0759-.17.2084.1518.1984-.0749.3209-.0749.501-.0952.1042-.2844-.0952-.2844.1042-.1134.0283-.2267-.1042-.3016.0092-.0384.1325.0749.1791.0567.3117.1883-.0193.2449.17.3208.2833l.1893.1893c-.1893.1508-.4352-.0193-.6619.0657-.0567-.0283 0-.1032-.0567-.1315-.0567-.0668-.17-.0668-.2642-.0851.0183.0851-.1518.1134-.0759.2166 0 .0283.0375.1134-.0374.1134-.1518.0475-.1326-.1316-.2652-.0658-.17.0658-.0374.3208-.2833.2925.0374.2277-.3775.3785-.0942.5769.0374.0374.0182.1133.0182.17-.17.1518-.4717.0951-.6609.0384-.1518-.0384-.0566-.2277-.1133-.3309-.0567-.0951-.2267-.1609-.2267-.2935-.1134-.0466-.2085-.0758-.2844-.17-.2641.255-.5859.5009-.9635.51-.17.0851-.2651.4262-.5293.2844-.1037.1701-.4159 0-.4347.245-.1229.0475-.0662.2084-.1416.2833-.0284.1893 0 .3502.1604.4636.0662.1416-.1417.1416-.0567.2742.0192.0466 0 .1134-.0283.1326-.0567.0283-.0754.0567-.0567.1134-.0471 0-.0663.0283-.1038.0657-.0475.0942-.1983.1417-.3026.2075-.1037.0283-.1796-.0466-.2454-.1133-.0192.1042-.1042.1609-.208.1609-.1513 0-.1229-.1326-.2363-.1893.0471-.17-.1042-.2449-.0567-.3967.1229-.0941.3305-.1609.2738-.3593-.1321-.1599-.085-.3967-.2171-.5859-.085-.0749-.2267-.1883-.1796-.3684.1229-.1417 0-.3117-.0663-.4625-.0283-.1235-.1037-.2368-.1037-.3785-.208-.1225-.2176-.4443-.5106-.4727-.208 0-.2454-.2641-.4534-.2459-.0192-.0374-.0663-.0658-.1042-.1032-.1508.1032-.3401-.0284-.5289.0182-.1229-.2075.1038-.4909-.2271-.6144v-.1315c.0379.0182.0566-.0193.0662-.0385.0188-.1417-.2363-.1599-.132-.3208-.0567-.0476-.123-.0668-.085-.1609-.1422-.2925-.5673-.2642-.662-.5577.076-.0657.076-.1325.1043-.1892-.0663-.1134-.085-.2358-.0663-.3583.0663-.0192.1038-.1042.1417-.171-.085-.0567-.1888-.1417-.2834-.1134-.17-.0283-.293-.1599-.4443-.2358-.038-.0374-.0187-.1042-.0187-.1508.208-.0668-.0283-.3598.2267-.3218.0663-.085.208-.1134.3118-.1796.1042-.0187.1892.0192.293.0476.085.1128.2363.0657.3213.1603.085-.0192.1892-.0663.293-.0192 0-.1604.0754-.255.1892-.3684.0187-.0658.1225-.1133.2075-.1508.1609.0375.3497.0375.4635-.0759.0754.0475.1417-.047.2267-.047.1037-.0193.1888.009.2647.0566.0091-.1892.34-.0283.4063-.255.0754-.1513-.2079-.208-.1892-.3406-.0471-.1513.0663-.2267.1229-.3304.0663-.0284.1417-.0663.2267-.0476.2176-.0754.0476-.5197.3972-.3588 0 .0471-.0192.1038.0092.1134.1229 0 .1418-.1418.2272-.1892.0374-.1321-.0476-.293.0658-.3968.0566-.0096.1042-.0283.1417-.0759 0-.1037-.0567-.1604-.1417-.2267-.0284.0473-.1038.0096-.1512.0284 0-.1134-.0659-.1888-.0852-.293-.0566-.0284-.085-.0754-.0658-.1417.0851-.085 0-.293.1984-.2458.0754-.066.208-.0189.2834-.1322.1984-.1134.463-.1134.6143-.3213.0663.0095.1417-.0567.208 0 .0187.1229.1984.0753.1984.189"/><path fill="#fff" d="m15.61 3.866-.261-.803-.258.803h-.845l.684.497-.261.803.681-.497.684.497-.261-.803.684-.497zm2.658.468-.261-.8-.258.8h-.845l.684.497-.261.803.681-.497.684.497-.261-.803.684-.497zm2.535.922-.258-.8-.261.8h-.845l.684.497-.261.803.684-.497.681.497-.261-.803.684-.497zm-7.893-1.39-.258-.803-.261.803h-.845l.684.497-.261.803.684-.497.681.497-.261-.803.684-.497zm-2.658.468-.258-.8-.261.8h-.845l.684.497-.261.803.684-.497.681.497-.261-.803.684-.497zm-2.536.922-.261-.8-.258.8h-.845l.684.497-.261.803.681-.497.684.497-.261-.803.684-.497z"/></g><defs><clipPath id="a"><rect width="28" height="20" fill="#fff" rx="2"/></clipPath></defs></svg>
